X:1
% The song with calculated Accords
T:Beskyde
O:Tjechie
M:2/4
L:1/8
Q:1/4=120
K:C             %transposed from D
V:1
|:"C"E E2 D|"C"E2 G2 |"F"F4 |"F"FF2 E|"F"F2 A2 |\
"C"G4 |"F"AA2 B|"C"c BA2 |"C"GG2 F|"C"E2 F2 |"C"G4 |
"F"AA2 B|"C"c BA2 |"C"GG2 F|"C"E2 D2 |"C"C4 :|\
K:F
|:"F"FF2 F|"F"F2 C2 |"Bb"D2 E2 |"F"F4 |
"F"cc2 c|"F"c2 A2 |"Bb"Bc d2 |"Bb"BB2 B|"Bb"B2 G2 |\
"F"AB c2 |"F"FE2 D|"F"C2 B2 |"F"A2 G2 |"F"F4 :|
"F"FG A2 |"Bb"BB2 B|"Bb"B AG2 |"F"AA2 A|"F"A GF2 |\
"C"GG2 G|"C"G FE2 |"F"FF2 F|
"F"f e_e2 |"Bb"dd2 d|"Bb"d cB2 |"F"Af2 c|"F"c BA2 |"C"GG2 G|"C"G FE2 |"F"F2 FF |]
